X: 4
T: The Clumsy Lover
R: reel
M: 4/4
L: 1/8
K: Amix
|: d2 | ceef ecBA | dffd afdf | ceef ecBA | d2Bc decB |
ceef ecBA | dffd gfed | ceec d2GB | BAAB A2 :|
|: d2 | ceea aecA | dAdf afdf | ceea aecA | d2Bc decB |
ceea aecA | dAdf afdf | ceec d2GB | BAAB A2 :|
|: d2 | ceec eece | dffd ffdf | ceec eece | dBBc decB |
ceec eece | dffd ffdf | ceec d2GB | BAAB A2 :|
|: d2 | caae aecA | daad aAda | caae aecA | d2Bc decB |
caae aecA | daad aAda | ceec d2GB | BAAB A2 :|
|: d2 | ceeA e2Ae | d3f g>fed | ceeA e2Ae | dBBc decB |
ceeA e2Ae | d3f g>fed | ceeA d2GB | BAAB A2 :|
|: d2 | caac aaca | daad aada | caac aaca | Baca daea |
caae aaca | daaf aada | ceec d2GB | BAAB A2 :|


Tune 16	Setting 16

